X:1
T:Yale, CMD
T:Yale, CMD
T:William Howard Doane, 1884
T:Public Domain Courtesy of the Cyber Hymnal™
C:William Howard Doane, 1884
Z:Public Domain
Z:Courtesy of the Cyber Hymnal™
%%score ( 1 2 ) ( 3 4 )
L:1/8
Q:1/4=108
M:4/4
K:G
V:1 treble 
V:2 treble 
V:3 bass 
V:4 bass 
V:1
 D2 | D3 [DG] ([GB][DA]) (GF) | [CE]3 [EG] [Ec]2 [CE]2 | [B,D]3 [DG] [DB]2 [DG]2 | [DA]6 [CD]2 | %5
 [B,D]3 [B,G] ([DB][CA]) ([B,G][DF]) | [CE]3 [EG] [Gc]2 [CE]2 | [B,D]3 [DG] [DA]2 (GF) | %8
 [DG]6 (G>A) | [GB]3 [Gd] [Ge]2 [Gd]2 | [GB]3 [FA] G2 D2 | [CE]3 [EG] [Ec]2 [CE]2 | [B,D]6 (G>A) | %13
 [GB]3 [Gd] [Ge]2 [Gd]2 | [GB]3 [FA] [EG]2 [GB]2 | [EB]3 [EA] [DG]2 [DF]2 | [DG]6 |] %17
V:2
 D2 | D3 D2 x3 | x8 | x8 | x8 | x8 | x8 | x6 D2 | x6 G2 | x8 | x4 G2 D2 | x8 | x6 G2 | x8 | x8 | %15
 x8 | x6 |] %17
V:3
 [G,B,]2 | [G,B,]3 [G,B,] (DC) ([G,B,][B,,D]) | [C,G,]3 [C,C] [C,G,]2 [C,G,]2 | %3
 [G,,G,]3 [G,,B,] [G,,G,]2 [B,,G,]2 | [D,F,]6 [D,F,]2 | [G,,G,]3 [G,,G,] [G,,G,]2 [G,,G,]2 | %6
 [C,G,]3 [C,C] [C,E]2 [C,G,]2 | [D,G,]3 [D,B,] [D,C]2 (B,A,) | [G,,B,]6 (B,>[CE]) | %9
 [G,D]3 [G,B,] [G,C]2 [G,B,]2 | [G,D]3 [D,C] [G,B,]2 [B,,G,]2 | [C,G,]3 [C,C] [C,G,]2 [C,G,]2 | %12
 [G,,G,]6 (B,>C) | [G,D]3 [G,B,] [G,C]2 [G,B,]2 | [G,D]3 [D,C] [E,B,]2 [B,,D]2 | %15
 [C,D]3 [C,C] [D,B,]2 (A,C) | [G,,B,]6 |] %17
V:4
 x2 | x4 G,2 x2 | x8 | x8 | x8 | x8 | x8 | x6 D,2 | x6 G,2 | x8 | x8 | x8 | x6 G,2 | x8 | x8 | %15
 x6 D,2 | x6 |] %17

